X:1
T:Mrs Waller
T:Mrs Waller
T:Carolan
C:Carolan
%%score ( 1 2 ) 3
L:1/8
M:4/4
K:C
V:1 treble 
V:2 treble 
V:3 bass 
V:1
 c'2 c'e' bd'{c'} ba | gd (e/f/g) ec a2 | gf (e/f/e/d/) c2 z2 | d2 z2 e2 z2 | f2 z2 g2 z2 | %5
 g2 a2 (c'bab) | c'2 ba (ga/g/) (fg/f/) | Te4 dd de/d/ | de/d/ e/f/g cc cd/c/ | B/A/c/G/ d2 cEBD | %10
 A[Cc]G[B,B] [A,A]AGB | EcdB (g/a/g/f/) (g/a/g/f/) | (e/f/e/d/) (e/f/e/d/)(c/B/c/d/) (c/B/c/d/) | %13
 (e/c/A/c/) e/c/A/c/ d/B/G/B/ d/B/G/B/ | (c/A/F/A/) f/A/F/A/ Gd (c/B/A/G/) | c4 c4 |] %16
 g{g}fed cBAG | ABcd ee/f/ g2 | (A/G/A/B/) c/B/c/A/ (B/A/B/c/) d/c/d/B/ | %19
 (c/B/c/d/) e/d/e/c/ (d/c/d/e/) f/e/f/d/ | eadg cedc | BgAf Ge Tdc/B/ | (e/f/g/f/ e)c a2 b2 | %23
 c'ebd acgB | Aage feTdc | [EGc]8 |] %26
V:2
 x8 | x8 | x4 z ECE | z FDF z GDG | z AFA z BGB | x8 | x8 | x8 | x8 | x8 | x8 | x8 | x8 | x8 | x8 | %15
 x8 |] G{G}FED CB,A,G, | A,B,CD E(E/F/) [CEG]2 | x8 | x8 | x8 | x8 | x8 | x8 | x8 | x8 |] %26
V:3
 C4 G,4 | B,2 G,2 C2 C,2 | B,2 C2 x4 | x8 | x8 | E2 F2 G2 G,2 | C2 D2 E2 D2 | CG,E,C, G,2 z2 | %8
 G,2 C2 E,2 F,2 | G,2 F,G, E,2 G,2 | F,2 E,2 F,2 G,2 | C,2 z2 E,2 z2 | C,2 z2 E,2 z2 | %13
 A,2 z2 B,2 z2 | A,2 F,2 G,2 G,2 | C,4 C,4 |] G,{G,}F,E,D, C,B,,A,,G,, | A,,B,,C,D, C,2 C,2 | %18
 F,2 F,,2 G,2 G,,2 | A,2 C2 B,2 G,2 | C2 B,2 A,2 F,2 | G,2 F,2 G,2 G,,2 | C,2 z2 F,D,G,G,, | %23
 C,2 G,2 F,2 G,2 | F,2 E,2 G,2 G,,2 | C,8 |] %26

